assets/Guitar/Flat/guitar_flat.svg

<svg width="32" height="32" viewBox="0 0 32 32" fill="none" xmlns="http://www.w3.org/2000/svg">
<path d="M26.5853 2.05627C26.9353 1.90627 27.3353 2.06627 27.4853 2.41627C27.5553 2.57627 27.5553 2.74627 27.4953 2.89627C27.4553 3.03627 27.4453 3.17627 27.5053 3.30627L27.8553 4.07627L27.2053 4.35627L26.8653 3.57627C26.8053 3.44627 26.6953 3.35627 26.5653 3.29627C26.4153 3.22627 26.2953 3.11627 26.2253 2.95627C26.0753 2.60627 26.2353 2.20627 26.5853 2.05627ZM25.9054 3.13624C25.7554 2.78624 25.3554 2.62624 25.0054 2.77624C24.6554 2.92624 24.4954 3.32624 24.6454 3.67624C24.7154 3.83624 24.8354 3.94624 24.9854 4.01624C25.1154 4.07624 25.2254 4.16624 25.2854 4.29624L25.6254 5.07624L26.2754 4.79624L25.9354 4.01624C25.8754 3.88624 25.8854 3.74624 25.9254 3.60624C25.9654 3.46624 25.9654 3.29624 25.9054 3.13624ZM24.3153 3.85621C24.1653 3.50621 23.7653 3.34621 23.4153 3.49621C23.0653 3.64621 22.9053 4.04621 23.0553 4.39621C23.1253 4.55621 23.2453 4.66621 23.3953 4.73621C23.5253 4.79621 23.6353 4.88621 23.6953 5.01621L24.0353 5.79621L24.6853 5.51621L24.3453 4.73621C24.2853 4.60621 24.2853 4.46621 24.3353 4.32621C24.3853 4.17621 24.3853 4.01621 24.3153 3.85621Z" fill="#D3D3D3"/>
<path d="M16.5253 23.0763C16.6453 21.7063 17.6553 20.5763 19.0153 20.3063C19.5653 20.1963 20.1053 20.0063 20.6253 19.7463C21.3853 19.3663 21.6953 18.4363 21.3153 17.6763C20.9353 16.9163 20.0053 16.6063 19.2453 16.9863C17.9553 17.6363 16.3953 17.3863 15.3653 16.3563C14.0653 15.0563 14.0553 12.9363 15.3453 11.6263C15.9453 11.0163 15.9753 10.0363 15.3753 9.42629C14.7753 8.81629 13.7853 8.81629 13.1853 9.41629C12.2553 10.3463 11.6653 11.4963 11.4253 12.7063C11.1553 14.0663 10.0053 15.0563 8.62532 15.1863C6.96532 15.3363 5.35532 16.0463 4.09532 17.3163C1.26532 20.1763 1.30532 24.8863 4.19532 27.6863C7.04532 30.4563 11.6053 30.4263 14.4253 27.6063C15.6753 26.3463 16.3853 24.7263 16.5253 23.0763Z" fill="#CA0B4A"/>
<path d="M15.3853 18.0463C15.0753 17.9363 14.7853 17.7563 14.5353 17.5063C14.3853 17.3563 14.2553 17.1863 14.1453 17.0063C13.9753 16.7263 13.8653 16.4163 13.8253 16.1063C13.7653 15.7163 13.5353 15.3863 13.2053 15.1963C13.0653 15.1163 12.9053 15.0663 12.7453 15.0463C12.2753 14.9963 11.8153 15.2163 11.5653 15.6263C11.2553 16.1363 10.6953 16.4663 10.0453 16.4963C8.95527 16.5363 7.91527 16.9463 7.12527 17.7463C7.11527 17.7563 7.11527 17.7563 7.10527 17.7663C6.11527 18.7863 6.13527 20.4163 7.13527 21.4163L9.38527 23.6663C10.3253 24.6063 9.60527 25.8763 9.59527 26.7663C9.59527 26.9263 9.62527 27.0963 9.68527 27.2463C9.95527 27.9463 10.7653 28.2763 11.4653 27.9963C12.2153 27.6963 12.8953 27.2563 13.4753 26.6663C13.9853 26.1563 14.3853 25.5763 14.6853 24.9363C14.9653 24.3163 15.0853 23.6463 15.2053 22.9663C15.3653 22.0763 15.8053 21.2563 16.5253 20.5763C17.0653 19.9863 17.6453 19.6563 18.4653 19.4663C18.6353 19.4263 19.0053 19.2863 19.1553 19.1863C19.4153 19.0163 19.4753 18.8063 19.4053 18.6263C19.1953 18.0263 18.6853 18.2063 18.2953 18.2763C17.6253 18.4063 17.0553 18.3363 16.8753 18.3163C16.8253 18.3063 16.7853 18.3063 16.7353 18.2963C16.4853 18.2563 15.7253 18.1663 15.3853 18.0463Z" fill="#F4F4F4"/>
<path d="M9.36532 24.7662L6.95532 22.3563C6.85532 22.2563 6.69532 22.2563 6.59532 22.3563L5.52532 23.4062C5.42532 23.5062 5.42532 23.6662 5.52532 23.7662L7.93532 26.1762C8.03532 26.2762 8.19532 26.2762 8.29532 26.1762L9.35532 25.1163C9.46532 25.0263 9.46532 24.8662 9.36532 24.7662Z" fill="#9B9B9B"/>
<path d="M12.2054 17.9663L13.7354 19.4963C13.9754 19.7363 13.9754 20.1163 13.7354 20.3463C13.4954 20.5763 13.1154 20.5763 12.8854 20.3463L11.3554 18.8163C11.1254 18.5763 11.1254 18.1963 11.3554 17.9663C11.5954 17.7363 11.9754 17.7363 12.2054 17.9663ZM10.1954 19.9862L11.7254 21.5162C11.9554 21.7462 11.9554 22.1262 11.7254 22.3662C11.4854 22.5962 11.1054 22.5962 10.8754 22.3662L9.34535 20.8362C9.11535 20.5962 9.11535 20.2162 9.34535 19.9862C9.58535 19.7562 9.96535 19.7562 10.1954 19.9862Z" fill="#D3D3D3"/>
<path d="M25.0553 8.53625L24.5 7L23.1753 6.65625L13.6453 16.1863C13.3953 16.4363 13.3953 16.8363 13.6453 17.0763L14.6353 18.0662C14.8853 18.3162 15.2853 18.3162 15.5253 18.0662L25.0553 8.53625Z" fill="#635994"/>
<path d="M26.1953 8.40626L27.2753 6.59626C27.3953 6.39626 27.6353 6.30626 27.8553 6.39626C28.4253 6.61626 29.0953 6.49626 29.5353 6.01626C30.0753 5.43626 30.0853 4.52626 29.5553 3.94626C29.0353 3.37626 28.2953 3.36626 27.5853 3.68626L23.4853 5.57626C23.0353 5.82626 22.9553 6.43626 23.3153 6.80626L25.0153 8.50626C25.3553 8.83626 25.9153 8.79626 26.1953 8.40626Z" fill="#CA0B4A"/>
</svg>

<svg xmlns="http://www.w3.org/2000/svg" width="32" height="32" fill="none"><path fill="#D3D3D3" d="M26.585 2.056c.35-.15.75.01.9.36.07.16.07.33.01.48-.04.14-.05.28.01.41l.35.77-.65.28-.34-.78a.586.586 0 0 0-.3-.28.664.664 0 0 1-.34-.34c-.15-.35.01-.75.36-.9Zm-.68 1.08a.683.683 0 0 0-.9-.36c-.35.15-.51.55-.36.9.07.16.19.27.34.34.13.06.24.15.3.28l.34.78.65-.28-.34-.78a.578.578 0 0 1-.01-.41c.04-.14.04-.31-.02-.47Zm-1.59.72a.683.683 0 0 0-.9-.36c-.35.15-.51.55-.36.9.07.16.19.27.34.34.13.06.24.15.3.28l.34.78.65-.28-.34-.78a.53.53 0 0 1-.01-.41.64.64 0 0 0-.02-.47Z"/><path fill="#CA0B4A" d="M16.525 23.076a3.1 3.1 0 0 1 2.49-2.77c.55-.11 1.09-.3 1.61-.56.76-.38 1.07-1.31.69-2.07a1.546 1.546 0 0 0-2.07-.69c-1.29.65-2.85.4-3.88-.63a3.365 3.365 0 0 1-.02-4.73c.6-.61.63-1.59.03-2.2-.6-.61-1.59-.61-2.19-.01-.93.93-1.52 2.08-1.76 3.29-.27 1.36-1.42 2.35-2.8 2.48-1.66.15-3.27.86-4.53 2.13-2.83 2.86-2.79 7.57.1 10.37 2.85 2.77 7.41 2.74 10.23-.08a7.314 7.314 0 0 0 2.1-4.53Z"/><path fill="#F4F4F4" d="M15.385 18.046c-.31-.11-.6-.29-.85-.54a2.69 2.69 0 0 1-.39-.5 2.32 2.32 0 0 1-.32-.9c-.06-.39-.29-.72-.62-.91-.14-.08-.3-.13-.46-.15-.47-.05-.93.17-1.18.58-.31.51-.87.84-1.52.87-1.09.04-2.13.45-2.92 1.25l-.02.02c-.99 1.02-.97 2.65.03 3.65l2.25 2.25c.94.94.22 2.21.21 3.1 0 .16.03.33.09.48.27.7 1.08 1.03 1.78.75.75-.3 1.43-.74 2.01-1.33.51-.51.91-1.09 1.21-1.73.28-.62.4-1.29.52-1.97.16-.89.6-1.71 1.32-2.39.54-.59 1.12-.92 1.94-1.11.17-.04.54-.18.69-.28.26-.17.32-.38.25-.56-.21-.6-.72-.42-1.11-.35-.67.13-1.24.06-1.42.04-.05-.01-.09-.01-.14-.02-.25-.04-1.01-.13-1.35-.25Z"/><path fill="#9B9B9B" d="m9.365 24.766-2.41-2.41c-.1-.1-.26-.1-.36 0l-1.07 1.05c-.1.1-.1.26 0 .36l2.41 2.41c.1.1.26.1.36 0l1.06-1.06c.11-.09.11-.25.01-.35Z"/><path fill="#D3D3D3" d="m12.205 17.966 1.53 1.53c.24.24.24.62 0 .85a.61.61 0 0 1-.85 0l-1.53-1.53a.61.61 0 0 1 0-.85.61.61 0 0 1 .85 0Zm-2.01 2.02 1.53 1.53c.23.23.23.61 0 .85a.61.61 0 0 1-.85 0l-1.53-1.53a.61.61 0 0 1 0-.85.61.61 0 0 1 .85 0Z"/><path fill="#635994" d="M25.055 8.536 24.5 7l-1.325-.344-9.53 9.53c-.25.25-.25.65 0 .89l.99.99c.25.25.65.25.89 0l9.53-9.53Z"/><path fill="#CA0B4A" d="m26.195 8.406 1.08-1.81c.12-.2.36-.29.58-.2.57.22 1.24.1 1.68-.38.54-.58.55-1.49.02-2.07-.52-.57-1.26-.58-1.97-.26l-4.1 1.89c-.45.25-.53.86-.17 1.23l1.7 1.7c.34.33.9.29 1.18-.1Z"/></svg>
